X: 10091
T: The MINSTREL'S RETURN FROM THE WAR
C:
%R: march
B: Elias Howe "The Musician's Companion" Part 1 1842 p.9 #1
S: http://imslp.org/wiki/The_Musician's_Companion_(Howe,_Elias)
Z: 2015 John Chambers <jc:trillian.mit.edu>
M: C
L: 1/8
K: C
% - - - - - - - - - - - - - - - - - - - - - - - - -
G2 |\
c2cc c2Bc | d4 z2G2 |\
d2dd d2cd | e4 z2G2 |\
A2AA FAcA | G4 z2G2 |\
G2GG G2AB | c4 z2G2 |\
Gceg gfdB | c4 z2 ||
dc |\
B2BB c2cc | d3B G2^FG |\
A2AA B2BB | A4 z2dc |\
B2BB c2cc | d4 e2ec |\
G2GG ^FcdF | G4 z2 ||
G2 |\
e2cc G2EE | G4 z2G2 |\
A2AA Gcec | ed3 z2GG |\
e2cc G2EE | G4 z2G2 |\
ABcd e2dB | dc3 |]
% - - - - - - - - - - - - - - - - - - - - - - - - -


